src/static/icons/camera.svg

<svg data-name="Layer 1" xmlns="http://www.w3.org/2000/svg" viewBox="0 0 70.87 70.87"><defs><clipPath id="a"><path fill="none" d="M.44.44h69.99v69.99H.44z"/></clipPath></defs><g clip-path="url(#a)"><path d="M64.07 35.43h-3.18v3.18h3.18zM60.89 45h3.18v-3.2h-3.18zM67.25.44H16.34a3.18 3.18 0 00-3.18 3.18v15.91a1.59 1.59 0 003.18 0V6.8a3.18 3.18 0 013.18-3.18h6.36v14.32a1.59 1.59 0 103.18 0V3.62h25.46V24.3a1.59 1.59 0 103.18 0V3.62h6.36a3.18 3.18 0 013.19 3.18v20.68h-4.77a1.59 1.59 0 100 3.18h4.77v20.68a3.18 3.18 0 01-3.18 3.18h-1.59a1.59 1.59 0 100 3.18h4.77a3.18 3.18 0 003.18-3.18V3.62A3.18 3.18 0 0067.25.44M64.07 6.8h-3.18V10h3.18zm-3.18 15.91h3.18v-3.19h-3.18zM22.71 6.8h-3.19V10h3.18zm38.18 44.54h3.18v-3.18h-3.18zm0-35h3.18v-3.18h-3.18zM48.16 45a1.59 1.59 0 101.59 1.59A1.59 1.59 0 0048.16 45M29.07 57.7a9.54 9.54 0 119.54-9.54 9.54 9.54 0 01-9.54 9.54m0-22.27A12.73 12.73 0 1041.8 48.16a12.73 12.73 0 00-12.73-12.73m-9.54-19.09h3.18v-3.18h-3.18zm35 47.72a3.18 3.18 0 01-3.18 3.18H6.8a3.18 3.18 0 01-3.18-3.18V35.43a3.18 3.18 0 013.18-3.18h6.36c6.36 0 6.36-6.36 11.14-6.36h9.54c4.77 0 4.77 6.36 11.14 6.36h6.36a3.18 3.18 0 013.18 3.18zm-3.18-35H45c-4.77 0-4.77-6.36-11.14-6.36H24.3c-6.36 0-6.36 6.36-11.14 6.36H6.8a6.36 6.36 0 00-6.36 6.37v28.64a6.36 6.36 0 006.36 6.36h44.54a6.36 6.36 0 006.36-6.36V35.43a6.36 6.36 0 00-6.36-6.36M29.07 51.34a3.18 3.18 0 113.18-3.18 3.18 3.18 0 01-3.18 3.18m0-9.55a6.36 6.36 0 106.36 6.36 6.36 6.36 0 00-6.36-6.36m19.09-6.36a3.18 3.18 0 103.18 3.18 3.18 3.18 0 00-3.18-3.18"/></g></svg>

<svg id="Layer_1" data-name="Layer 1" xmlns="http://www.w3.org/2000/svg" xmlns:xlink="http://www.w3.org/1999/xlink" viewBox="0 0 70.87 70.87"><defs><style>.cls-1{fill:none;}.cls-2{clip-path:url(#clip-path);}.cls-3{fill:#1d1d1b;}</style><clipPath id="clip-path"><rect class="cls-1" x="0.44" y="0.44" width="69.99" height="69.99"/></clipPath></defs><title>icons-collected</title><g class="cls-2"><path class="cls-3" d="M64.07,35.43H60.89v3.18h3.18ZM60.89,45h3.18V41.8H60.89ZM67.25.44H16.34a3.18,3.18,0,0,0-3.18,3.18V19.53a1.59,1.59,0,0,0,3.18,0V6.8a3.18,3.18,0,0,1,3.18-3.18h6.36V17.94a1.59,1.59,0,1,0,3.18,0V3.62H54.52V24.3a1.59,1.59,0,1,0,3.18,0V3.62h6.36A3.18,3.18,0,0,1,67.25,6.8V27.48H62.48a1.59,1.59,0,1,0,0,3.18h4.77V51.34a3.18,3.18,0,0,1-3.18,3.18H62.48a1.59,1.59,0,1,0,0,3.18h4.77a3.18,3.18,0,0,0,3.18-3.18V3.62A3.18,3.18,0,0,0,67.25.44M64.07,6.8H60.89V10h3.18ZM60.89,22.71h3.18V19.52H60.89ZM22.71,6.8H19.52V10h3.18ZM60.89,51.34h3.18V48.16H60.89Zm0-35h3.18V13.16H60.89ZM48.16,45a1.59,1.59,0,1,0,1.59,1.59A1.59,1.59,0,0,0,48.16,45M29.07,57.7a9.54,9.54,0,1,1,9.54-9.54,9.54,9.54,0,0,1-9.54,9.54m0-22.27A12.73,12.73,0,1,0,41.8,48.16,12.73,12.73,0,0,0,29.07,35.43M19.53,16.34h3.18V13.16H19.53Zm35,47.72a3.18,3.18,0,0,1-3.18,3.18H6.8a3.18,3.18,0,0,1-3.18-3.18V35.43A3.18,3.18,0,0,1,6.8,32.25h6.36c6.36,0,6.36-6.36,11.14-6.36h9.54c4.77,0,4.77,6.36,11.14,6.36h6.36a3.18,3.18,0,0,1,3.18,3.18Zm-3.18-35H45c-4.77,0-4.77-6.36-11.14-6.36H24.3c-6.36,0-6.36,6.36-11.14,6.36H6.8A6.36,6.36,0,0,0,.44,35.43V64.07A6.36,6.36,0,0,0,6.8,70.43H51.34a6.36,6.36,0,0,0,6.36-6.36V35.43a6.36,6.36,0,0,0-6.36-6.36M29.07,51.34a3.18,3.18,0,1,1,3.18-3.18,3.18,3.18,0,0,1-3.18,3.18m0-9.55a6.36,6.36,0,1,0,6.36,6.36,6.36,6.36,0,0,0-6.36-6.36m19.09-6.36a3.18,3.18,0,1,0,3.18,3.18,3.18,3.18,0,0,0-3.18-3.18"/></g></svg>
